www/assets/icons/new_label.svg

<svg xmlns="http://www.w3.org/2000/svg" width="24" height="24" viewBox="0 0 24 24" fill='currentColor'><path d="m21.5 11.5-4.37 6.16c-.37.52-.98.84-1.63.84h-3v-6h-3v-3h-6v-3c0-1.1.9-2 2-2h10c.65 0 1.26.31 1.63.84zm-11 3h-3v-3h-2v3h-3v2h3v3h2v-3h3z"/></svg>

<svg width="24" height="24" viewBox="0 0 24 24" xmlns="http://www.w3.org/2000/svg" fill='currentColor'><path d="M21.5 11.5L17.13 17.66C16.76 18.18 16.15 18.5 15.5 18.5H12.5V12.5H9.5V9.5H3.5V6.5C3.5 5.4 4.4 4.5 5.5 4.5H15.5C16.15 4.5 16.76 4.81 17.13 5.34L21.5 11.5ZM10.5 14.5H7.5V11.5H5.5V14.5H2.5V16.5H5.5V19.5H7.5V16.5H10.5V14.5Z"/></svg>
